packages/foundations/assets/icons/functional/images/file/paper_clip_32.svg

<svg width="32" height="32" viewBox="0 0 32 32" fill="none" xmlns="http://www.w3.org/2000/svg">
<g clip-path="url(#clip0_185_993)">
<path fill-rule="evenodd" clip-rule="evenodd" d="M25.8313 4.75967C27.7264 6.66838 27.7709 9.71942 25.9688 11.6818L14.5293 23.1277C13.3549 24.2854 11.4643 24.2719 10.3066 23.0975C9.18516 21.96 9.15141 20.1554 10.2007 18.9777L19.8675 9.30376C20.258 8.91324 20.8912 8.91324 21.2817 9.30376C21.6443 9.66639 21.6702 10.2382 21.3594 10.6308L11.7359 20.2637C11.3417 20.658 11.3394 21.2964 11.7308 21.6934C12.0858 22.0535 12.6495 22.0831 13.0387 21.7794L24.4044 10.4243C25.5786 9.25003 25.582 7.34727 24.412 6.16884C23.2916 5.04043 21.4937 4.99385 20.3174 6.03374L8.18131 18.1618C6.22639 20.1167 6.22262 23.2851 8.17288 25.2447C10.0642 27.145 13.1068 27.2021 15.0672 25.4108L25.5245 14.9608C25.915 14.5702 26.5482 14.5702 26.9387 14.9608C27.3013 15.3234 27.3272 15.8952 27.0164 16.2877L16.6346 26.679C13.9 29.4006 9.4769 29.3901 6.75528 26.6555C4.084 23.9715 4.03341 19.6662 6.59973 16.9207L18.7802 4.73448C20.7343 2.79437 23.8911 2.80565 25.8313 4.75967Z" fill="#1A1C1F"/>
</g>
<defs>
<clipPath id="clip0_185_993">
<rect width="32" height="32" fill="white"/>
</clipPath>
</defs>
</svg>

<svg xmlns="http://www.w3.org/2000/svg" width="32" height="32" fill="none"><g clip-path="url(#a)"><path fill="#1A1C1F" fill-rule="evenodd" d="M25.831 4.76a5.015 5.015 0 0 1 .138 6.922l-11.44 11.446a2.986 2.986 0 0 1-4.222-.03 3.015 3.015 0 0 1-.106-4.12l9.667-9.674a1 1 0 0 1 1.491 1.327l-9.623 9.633a1.015 1.015 0 0 0-.005 1.43c.355.36.918.389 1.308.085l11.365-11.355a3.014 3.014 0 0 0 .008-4.255 2.986 2.986 0 0 0-4.095-.135L8.181 18.162a5.014 5.014 0 0 0-.008 7.083 4.986 4.986 0 0 0 6.894.166l10.458-10.45a1 1 0 0 1 1.491 1.327L16.635 26.679a6.986 6.986 0 0 1-9.88-.023A7.015 7.015 0 0 1 6.6 16.92L18.78 4.734a4.986 4.986 0 0 1 7.051.026" clip-rule="evenodd"/></g><defs><clipPath id="a"><path fill="#fff" d="M0 0h32v32H0z"/></clipPath></defs></svg>
